public/static/icons/navbar/ic_blog.svg

<svg height="24" viewBox="0 0 24 24" width="24" xmlns="http://www.w3.org/2000/svg"><path d="m14.984127 0c2.7619047 0 5.015873 2.25396825 5.015873 5.01587302v9.96825398c0 2.7619047-2.2539683 5.015873-5.015873 5.015873h-9.984127c-2.74603175 0-5-2.2539683-5-5v-9.98412698c0-2.76190477 2.25396825-5.01587302 5-5.01587302zm-4.5079365 3.80952381h-2.76190479c-2.17460317 0-3.9047619 1.73015873-3.9047619 3.88888889v4.6031746c0 2.1587302 1.73015873 3.8888889 3.9047619 3.8888889h4.53968259c2.1746031 0 3.9523809-1.7460318 3.9682539-3.9047619v-3.15873017l-.031746-.15873016-.1111111-.22222222-.1746032-.14285715c-.2380952-.17460317-1.3968254.01587302-1.7142857-.26984127-.2222222-.2063492-.2539683-.57142857-.3174603-1.06349206-.1111111-.96825397-.2063492-1.01587302-.3492064-1.33333333-.5396825-1.15873016-2.031746-2.12698413-3.047619-2.12698413zm1.7460317 7.61904759c.4126984 0 .7460318.3809524.7460318.7936508s-.3333334.7936508-.7460318.7936508h-4.46031744c-.42857143 0-.76190476-.3809524-.76190476-.7936508s.34920635-.7936508.76190476-.7936508zm-2.26984125-4.44444442c.42857145 0 .76190475.30158731.76190475.71428572s-.3492063.71428571-.76190475.71428571h-2.19047619c-.41269841 0-.76190476-.3015873-.76190476-.71428571s.34920635-.71428572.76190476-.71428572z" transform="translate(2 2)"/></svg>

<svg xmlns="http://www.w3.org/2000/svg" width="24" height="24" viewBox="0 0 24 24">
  <path d="M14.984127,0 C17.7460317,0 20,2.25396825 20,5.01587302 L20,5.01587302 L20,14.984127 C20,17.7460317 17.7460317,20 14.984127,20 L14.984127,20 L5,20 C2.25396825,20 0,17.7460317 0,15 L0,15 L0,5.01587302 C0,2.25396825 2.25396825,0 5,0 L5,0 Z M10.4761905,3.80952381 L7.71428571,3.80952381 C5.53968254,3.80952381 3.80952381,5.53968254 3.80952381,7.6984127 L3.80952381,7.6984127 L3.80952381,12.3015873 C3.80952381,14.4603175 5.53968254,16.1904762 7.71428571,16.1904762 L7.71428571,16.1904762 L12.2539683,16.1904762 C14.4285714,16.1904762 16.2063492,14.4444444 16.2222222,12.2857143 L16.2222222,12.2857143 L16.2222222,9.12698413 L16.1904762,8.96825397 L16.0793651,8.74603175 L15.9047619,8.6031746 C15.6666667,8.42857143 14.5079365,8.61904762 14.1904762,8.33333333 C13.968254,8.12698413 13.9365079,7.76190476 13.8730159,7.26984127 C13.7619048,6.3015873 13.6666667,6.25396825 13.5238095,5.93650794 C12.984127,4.77777778 11.4920635,3.80952381 10.4761905,3.80952381 L10.4761905,3.80952381 Z M12.2222222,11.4285714 C12.6349206,11.4285714 12.968254,11.8095238 12.968254,12.2222222 C12.968254,12.6349206 12.6349206,13.015873 12.2222222,13.015873 L12.2222222,13.015873 L7.76190476,13.015873 C7.33333333,13.015873 7,12.6349206 7,12.2222222 C7,11.8095238 7.34920635,11.4285714 7.76190476,11.4285714 L7.76190476,11.4285714 Z M9.95238095,6.98412698 C10.3809524,6.98412698 10.7142857,7.28571429 10.7142857,7.6984127 C10.7142857,8.11111111 10.3650794,8.41269841 9.95238095,8.41269841 L9.95238095,8.41269841 L7.76190476,8.41269841 C7.34920635,8.41269841 7,8.11111111 7,7.6984127 C7,7.28571429 7.34920635,6.98412698 7.76190476,6.98412698 L7.76190476,6.98412698 Z" transform="translate(2 2)"/>
</svg>
